assets/img/torus-login/reddit-color.svg

<svg xmlns="http://www.w3.org/2000/svg" viewBox="0 0 32 32" fill="none"><path d="M15.907 31.814C24.6922 31.814 31.814 24.6922 31.814 15.907C31.814 7.1218 24.6922 0 15.907 0C7.1218 0 0 7.1218 0 15.907C0 24.6922 7.1218 31.814 15.907 31.814Z" fill="#FF4500"/><path d="M26.5114 15.907C26.5114 14.6233 25.4696 13.5814 24.1859 13.5814C23.5533 13.5814 22.9952 13.8233 22.5859 14.2326C21.0045 13.0977 18.8091 12.3535 16.3905 12.2605L17.451 7.29304L20.8928 8.01862C20.93 8.89304 21.6556 9.60002 22.5487 9.60002C23.4603 9.60002 24.2045 8.85583 24.2045 7.9442C24.2045 7.03258 23.4603 6.28839 22.5487 6.28839C21.8975 6.28839 21.3394 6.66048 21.0789 7.21862L17.2277 6.40002C17.1161 6.38141 17.0045 6.40002 16.9114 6.45583C16.8184 6.51165 16.7626 6.60467 16.7254 6.7163L15.5533 12.2605C13.0789 12.3349 10.8649 13.0605 9.26494 14.2326C8.85563 13.8419 8.27889 13.5814 7.66494 13.5814C6.38122 13.5814 5.33936 14.6233 5.33936 15.907C5.33936 16.8558 5.89749 17.6558 6.7161 18.0279C6.67889 18.2512 6.66029 18.493 6.66029 18.7349C6.66029 22.307 10.8091 25.1907 15.944 25.1907C21.0789 25.1907 25.2277 22.307 25.2277 18.7349C25.2277 18.493 25.2091 18.2698 25.1719 18.0465C25.9347 17.6744 26.5114 16.8558 26.5114 15.907ZM10.6045 17.5628C10.6045 16.6512 11.3487 15.907 12.2603 15.907C13.1719 15.907 13.9161 16.6512 13.9161 17.5628C13.9161 18.4744 13.1719 19.2186 12.2603 19.2186C11.3487 19.2186 10.6045 18.4744 10.6045 17.5628ZM19.851 21.9349C18.7161 23.0698 16.558 23.1442 15.9254 23.1442C15.2928 23.1442 13.1161 23.0512 11.9998 21.9349C11.8324 21.7675 11.8324 21.4884 11.9998 21.3209C12.1673 21.1535 12.4463 21.1535 12.6138 21.3209C13.3207 22.0279 14.8463 22.2884 15.944 22.2884C17.0417 22.2884 18.5487 22.0279 19.2742 21.3209C19.4417 21.1535 19.7207 21.1535 19.8882 21.3209C20.0184 21.507 20.0184 21.7675 19.851 21.9349ZM19.5533 19.2186C18.6417 19.2186 17.8975 18.4744 17.8975 17.5628C17.8975 16.6512 18.6417 15.907 19.5533 15.907C20.4649 15.907 21.2091 16.6512 21.2091 17.5628C21.2091 18.4744 20.4649 19.2186 19.5533 19.2186Z" fill="white"/></svg>

<svg xmlns="http://www.w3.org/2000/svg" viewBox="0 0 32 32" fill="none"><path d="M15.907 31.814c8.785 0 15.907-7.122 15.907-15.907S24.692 0 15.907 0 0 7.122 0 15.907s7.122 15.907 15.907 15.907Z" fill="#FF4500"/><path d="M26.511 15.907a2.326 2.326 0 0 0-2.325-2.326c-.633 0-1.19.242-1.6.652-1.581-1.135-3.777-1.88-6.195-1.973l1.06-4.967 3.442.726a1.658 1.658 0 0 0 3.311-.075 1.66 1.66 0 0 0-1.655-1.656 1.61 1.61 0 0 0-1.47.93L17.228 6.4a.464.464 0 0 0-.317.056.453.453 0 0 0-.186.26l-1.172 5.545c-2.474.074-4.688.8-6.288 1.972a2.347 2.347 0 0 0-1.6-.652 2.326 2.326 0 0 0-2.326 2.326c0 .949.558 1.749 1.377 2.12a4.354 4.354 0 0 0-.056.708c0 3.572 4.15 6.456 9.284 6.456 5.135 0 9.284-2.884 9.284-6.456a4.14 4.14 0 0 0-.056-.688 2.407 2.407 0 0 0 1.34-2.14Zm-15.906 1.656a1.66 1.66 0 0 1 1.655-1.656 1.66 1.66 0 0 1 1.656 1.656 1.66 1.66 0 0 1-1.656 1.656 1.66 1.66 0 0 1-1.655-1.656Zm9.246 4.372c-1.135 1.135-3.293 1.21-3.926 1.21-.632 0-2.809-.094-3.925-1.21a.438.438 0 0 1 0-.614.438.438 0 0 1 .614 0c.707.707 2.232.967 3.33.967 1.098 0 2.605-.26 3.33-.967a.438.438 0 0 1 .614 0 .48.48 0 0 1-.037.614Zm-.298-2.716a1.66 1.66 0 0 1-1.655-1.656 1.66 1.66 0 0 1 1.655-1.656 1.66 1.66 0 0 1 1.656 1.656 1.66 1.66 0 0 1-1.656 1.656Z" fill="#fff"/></svg>
